static/logos/drift-glyph-color.svg

<svg width="35" height="50" viewBox="0 0 35 50" fill="none" xmlns="http://www.w3.org/2000/svg">
<path d="M33.439 0.270451H32.9023L12.5929 0C11.6517 0 11.115 0.270451 10.7104 0.943385L10.5741 1.21171L3.31028 13.9889L1.15944 17.8881C1.02528 18.0244 1.02528 18.2927 1.02528 18.561C1.02528 19.0998 1.4299 19.3681 2.1007 19.3681H6.8091C7.6162 19.5023 8.15497 20.1752 7.75036 20.8482C7.75036 20.9824 7.6162 21.1166 7.6162 21.1166L0.352354 33.2208C0.352354 33.2208 0.0840255 33.4913 0.0840255 33.6255C-0.184296 34.2984 0.21819 34.835 0.891123 34.9713H5.73156C6.54078 35.1055 6.94539 35.7763 6.54078 36.5834L6.40662 36.988L0.622803 48.956C0.622803 48.956 0.488643 49.2264 0.488643 49.3606C0.353058 49.6297 0.487237 49.7638 0.620718 49.8973L0.622803 49.8994C0.891124 50.0335 1.02528 50.0335 1.2936 49.8994C1.42989 49.8994 1.69822 49.6311 1.69822 49.6311L23.083 33.7596L23.3513 33.4913C23.493 33.3554 23.5935 33.1827 23.6412 32.9923C23.6891 32.8022 23.6823 32.6024 23.6218 32.4159C23.3513 32.1454 22.9489 31.875 22.5464 31.875H19.1838C18.2405 31.875 17.838 31.2042 18.2405 30.5334C18.2405 30.3992 18.3726 30.267 18.5048 30.1349L18.5109 30.1288L27.6551 19.7727L28.0597 19.3681C28.4622 18.6973 28.0598 18.0244 27.2527 17.8881H22.1418C21.2005 17.7539 20.7959 17.0831 21.2005 16.4102C21.2005 16.276 21.471 16.0056 21.471 16.0056L33.8436 1.88463C33.9777 1.88463 33.9777 1.75047 34.1119 1.61419C34.5165 1.07755 34.1119 0.404612 33.439 0.270451Z" fill="#111111"/>
</svg>

<svg xmlns="http://www.w3.org/2000/svg" width="44.8" height="64" fill="none" viewBox="0 0 35 50"><path fill="#111" d="M33.439.27h-.537L12.592 0c-.94 0-1.477.27-1.882.943l-.136.269L3.31 13.989l-2.15 3.9c-.135.135-.135.404-.135.672 0 .539.405.807 1.076.807h4.708c.807.134 1.346.807.941 1.48 0 .134-.134.269-.134.269L.352 33.22s-.268.27-.268.405c-.268.672.134 1.209.807 1.345h4.84c.81.135 1.214.805.81 1.612l-.134.405L.623 48.956s-.134.27-.134.405c-.136.269-.002.403.132.536l.002.002c.268.134.402.134.67 0 .137 0 .405-.268.405-.268L23.083 33.76l.268-.269a1.042 1.042 0 0 0 .27-1.075c-.27-.27-.672-.541-1.075-.541h-3.362c-.944 0-1.346-.67-.944-1.342 0-.134.133-.266.265-.398l.006-.006 9.144-10.356.405-.405c.402-.67 0-1.344-.807-1.48h-5.111c-.941-.134-1.346-.805-.941-1.478 0-.134.27-.404.27-.404L33.844 1.885c.134 0 .134-.135.268-.27.404-.537 0-1.21-.673-1.345Z"/></svg>
